X:1
T:Title
%%score ( 1 2 ) { 3 | 4 }
L:1/8
Q:1/4=100
M:2/4
K:G
V:1 treble nm="Bright Piano"
V:2 treble 
V:3 bass nm="Bright Piano"
V:4 bass 
V:1
 [DB]2 [CA]2 | [B,G]2 [CE]2 | z2 .G2 | [Ge]2 [Gd]2 | [Fc]2 [GB]2 | Ae cA | [DG]2 [DA]2 | [DB]2 z2 | %8
w: Wilhelm~Brockhaus *||||||||
 [DB]2 [FA]2 | [EG]2 [EG]2 | [G^c]2 Bc | [Fd]2 [FA]2 | [Ac]2 [GB]2 | [Ee]2 cA | [GB]2 [FA]2 | %15
w: |||||||
 G2 z2 | [GA]2 [GA]2 | [Fd]2 [DF]2 | [^CA]2 [CE]2 | [EG]2 F2 | [Fc]2 [Dc]2 | [DB]2 [DB]2 | %22
w: |||||||
 [Dd]2 [Fc][GB] | [GB]2 [FA]2 | [GB]2 [GB]2 | [FA]2 [FA]2 | [Ge]2 [Ge]2 | [Gd]4 | .G2 .c2 | %29
w: |||||||
 [Gd]2 z A | [GB]2 [FA]2 | G4 |] %32
w: |||
V:2
 x4 | x4 | [B,D]2 D-[DB] | x4 | x4 | E2 E2 | x4 | x4 | x4 | x4 | z2 G2 | x4 | x4 | z2 E2 | x4 | %15
 x4 | x4 | x4 | x4 | x4 | x4 | x4 | x4 | x4 | x4 | x4 | x4 | x4 | e-[Ee] E-[EA] | z2 G2 | x4 | %31
 x4 |] %32
V:3
 G,2 F,2 | G,2 G,2 | G,2 G,2 | C2 B,2 | A,2 G,2 | C2 C2 | B,2 F,2 | G,2 z2 | G,2 C2 | B,2 CD | %10
 E2 E2 | D2 D2 | D2 D2 | C2[K:bass] A,C | G,D C2 | B,2 z2 | ^C2 A,2 | A,2 A,2 | A,2 A,2 | ^C2 D2 | %20
 A,2 A,2 | G,2 G,2 | B,2[K:treble] D2 | D2 D2 | D2 D2 | D2 D2 | C2 C2 | B,4 | C2 A,C | %29
 B,2[K:treble] B,C | D2 C2 | B,4 |] %32
V:4
 G,,2 D,2 | E,2 C,2 | G,,2 B,,2 | C,2 G,2 | D,2 z2 | C,2 A,,C, | D,2 D,2 | G,,2 z2 | G,,2 D,2 | %9
 E,D, C,B,, | A,,2 A,,2 | D,2 D,2 | F,2 G,2 | C,2 C,2 | D,2 D,2 | G,,2 z2 | A,2 ^C,2 | D,2 D,2 | %18
 A,,2 A,,2 | A,,2 D,2 | D,2 F,2 | z2 G,,2 | G,,2 A,,B,, | D,2 D,2 | G,2 G,2 | D,2 D,2 | C,D, E,C, | %27
 G,4 | C,2 C,2 | D,2 D,2 | D,2 D,2 | G,,4 |] %32

